flags/fm.svg

<svg width="512" height="512" viewBox="0 0 512 512" fill="none" xmlns="http://www.w3.org/2000/svg">
<rect width="512" height="512" fill="var(--flag-palette-light-blue, #338af3)"/>
<path d="M256 111.304L267.051 145.316H302.814L273.883 166.337L284.932 200.348L256 179.328L227.067 200.348L238.12 166.337L209.188 145.316H244.951L256 111.304Z" fill="var(--flag-palette-white, #eeeeee)"/>
<path d="M111.305 256.002L145.317 244.95V209.186L166.338 238.12L200.349 227.069L179.329 256.002L200.349 284.932L166.338 273.88L145.317 302.813V267.051L111.305 256.002Z" fill="var(--flag-palette-white, #eeeeee)"/>
<path d="M256.003 400.696L244.951 366.684H209.188L238.121 345.663L227.07 311.652L256.003 332.672L284.934 311.652L273.882 345.663L302.814 366.684H267.052L256.003 400.696Z" fill="var(--flag-palette-white, #eeeeee)"/>
<path d="M400.696 255.999L366.684 267.05V302.813L345.663 273.88L311.652 284.931L332.672 255.999L311.652 227.068L345.663 238.12L366.684 209.186V244.949L400.696 255.999Z" fill="var(--flag-palette-white, #eeeeee)"/>
</svg>

<svg xmlns="http://www.w3.org/2000/svg" width="512" height="512" fill="none"><path fill="var(--flag-palette-light-blue, #338af3)" d="M0 0h512v512H0z"/><path fill="#EEE" d="m256 111.3 11 34h35.8l-29 21 11.1 34-28.9-21-29 21 11.1-34-29-21H245zM111.3 256l34-11v-35.8l21 29 34-11.1-21 28.9 21 29-34-11.1-21 29V267zM256 400.7l-11-34h-35.8l29-21-11.1-34 28.9 21 29-21-11.1 34 29 21H267zM400.7 256l-34 11v35.8l-21-29-34 11.1 21-28.9-21-29 34 11.1 21-29V245z"/></svg>
